X: 1248
T: The Clock in the Steeple
M:C|
L:1/8
R:Reel
B:O'Neill's 1248
N:
Z:Transcribed by Trish O'Neil
K:A
g|a2(ec) defg|afec dBBg|a2(ec) defg|afec (3AAA Ag|
a2(ec) defg|afec dBBc|Ac (3efg (ab)af|ecBd cA A||
B|c2cAd2dB|efec dBBd|c2(cA) defg|afed cAAB|
c2cAd2dB|efec dBBd|Ac (3efg (ab)af|ecBd cA A||


